img/svg/edit.svg

<svg width="24" height="24" viewBox="0 0 24 24" fill="none" xmlns="http://www.w3.org/2000/svg">
    <path
        d="M13.5999 19.1032H19.5999M4 19.1032L8.36599 18.2235C8.59776 18.1768 8.81058 18.0626 8.97772 17.8954L18.7514 8.11637C19.22 7.64752 19.2197 6.88753 18.7507 6.41907L16.6803 4.35099C16.2115 3.88272 15.4519 3.88304 14.9835 4.3517L5.20876 14.1318C5.04195 14.2987 4.92805 14.511 4.8813 14.7423L4 19.1032Z"
        stroke="#46B75B" stroke-width="2" stroke-linecap="round" stroke-linejoin="round" />
</svg>

<svg width="24" height="24" viewBox="0 0 24 24" fill="none" xmlns="http://www.w3.org/2000/svg"><path d="M13.6 19.103h6m-15.6 0l4.366-.88a1.2 1.2 0 00.612-.328l9.773-9.779a1.2 1.2 0 000-1.697l-2.07-2.068a1.2 1.2 0 00-1.698 0l-9.774 9.78a1.2 1.2 0 00-.328.611L4 19.103z" stroke="#46B75B" stroke-width="2" stroke-linecap="round" stroke-linejoin="round"/></svg>
